public/build/img/sistema/panelconfiguracion-ng.svg

<svg width="38" height="41" viewBox="0 0 38 41" fill="none" xmlns="http://www.w3.org/2000/svg">
<path d="M37.7422 13.793C37.9922 14.4727 37.7813 15.2305 37.2422 15.7148L33.8594 18.793C33.9453 19.4414 33.9922 20.1055 33.9922 20.7773C33.9922 21.4492 33.9453 22.1133 33.8594 22.7617L37.2422 25.8398C37.7813 26.3242 37.9922 27.082 37.7422 27.7617C37.3985 28.6914 36.9844 29.582 36.5078 30.4414L36.1406 31.0742C35.625 31.9336 35.0469 32.7461 34.4141 33.5117C33.9531 34.0742 33.1875 34.2617 32.5 34.043L28.1485 32.6602C27.1016 33.4648 25.9453 34.1367 24.711 34.6445L23.7344 39.1055C23.5781 39.8164 23.0313 40.3789 22.3125 40.4961C21.2344 40.6758 20.125 40.7695 18.9922 40.7695C17.8594 40.7695 16.75 40.6758 15.6719 40.4961C14.9531 40.3789 14.4063 39.8164 14.25 39.1055L13.2735 34.6445C12.0391 34.1367 10.8828 33.4648 9.83596 32.6602L5.49221 34.0508C4.80471 34.2695 4.03908 34.0742 3.57815 33.5195C2.94533 32.7539 2.36721 31.9414 1.85158 31.082L1.4844 30.4492C1.00783 29.5898 0.59377 28.6992 0.25002 27.7695C2.00868e-05 27.0898 0.210958 26.332 0.75002 25.8477L4.13283 22.7695C4.04689 22.1133 4.00002 21.4492 4.00002 20.7773C4.00002 20.1055 4.04689 19.4414 4.13283 18.793L0.75002 15.7148C0.210958 15.2305 2.00868e-05 14.4727 0.25002 13.793C0.59377 12.8633 1.00783 11.9727 1.4844 11.1133L1.85158 10.4805C2.36721 9.62109 2.94533 8.80859 3.57815 8.04297C4.03908 7.48047 4.80471 7.29297 5.49221 7.51172L9.84377 8.89453C10.8906 8.08984 12.0469 7.41797 13.2813 6.91016L14.2578 2.44922C14.4141 1.73828 14.961 1.17578 15.6797 1.05859C16.7578 0.871094 17.8672 0.777344 19 0.777344C20.1328 0.777344 21.2422 0.871094 22.3203 1.05078C23.0391 1.16797 23.586 1.73047 23.7422 2.44141L24.7188 6.90234C25.9531 7.41016 27.1094 8.08203 28.1563 8.88672L32.5078 7.50391C33.1953 7.28516 33.961 7.48047 34.4219 8.03516C35.0547 8.80078 35.6328 9.61328 36.1485 10.4727L36.5156 11.1055C36.9922 11.9648 37.4063 12.8555 37.75 13.7852L37.7422 13.793ZM19 27.0273C22.4531 27.0273 25.25 24.2305 25.25 20.7773C25.25 17.3242 22.4531 14.5273 19 14.5273C15.5469 14.5273 12.75 17.3242 12.75 20.7773C12.75 24.2305 15.5469 27.0273 19 27.0273Z" fill="black"/>
</svg>

<svg width="38" height="41" fill="none" xmlns="http://www.w3.org/2000/svg"><path d="M37.742 13.793c.25.68.04 1.438-.5 1.922l-3.383 3.078c.086.648.133 1.313.133 1.984 0 .672-.047 1.336-.133 1.985l3.383 3.078c.54.484.75 1.242.5 1.922-.343.93-.758 1.82-1.234 2.68l-.367.632a19.874 19.874 0 01-1.727 2.438c-.46.562-1.227.75-1.914.531l-4.352-1.383a15.038 15.038 0 01-3.437 1.985l-.977 4.46c-.156.711-.703 1.274-1.422 1.391-1.078.18-2.187.273-3.32.273s-2.242-.093-3.32-.273c-.719-.117-1.266-.68-1.422-1.39l-.976-4.462a15.035 15.035 0 01-3.438-1.984l-4.344 1.39c-.687.22-1.453.024-1.914-.53a19.876 19.876 0 01-1.726-2.438l-.368-.633a19.48 19.48 0 01-1.234-2.68c-.25-.68-.039-1.437.5-1.921l3.383-3.078A15.326 15.326 0 014 20.777c0-.672.047-1.336.133-1.984L.75 15.715c-.539-.485-.75-1.242-.5-1.922.344-.93.758-1.82 1.234-2.68l.368-.633a19.877 19.877 0 011.726-2.437c.461-.563 1.227-.75 1.914-.531l4.352 1.383A15.032 15.032 0 0113.28 6.91l.977-4.46c.156-.712.703-1.274 1.422-1.391A19.367 19.367 0 0119 .777c1.133 0 2.242.094 3.32.274.72.117 1.266.68 1.422 1.39l.977 4.461c1.234.508 2.39 1.18 3.437 1.985l4.352-1.383c.687-.219 1.453-.024 1.914.531.633.766 1.21 1.578 1.727 2.438l.367.632c.476.86.89 1.75 1.234 2.68l-.008.008zM19 27.027a6.248 6.248 0 006.25-6.25 6.248 6.248 0 00-6.25-6.25 6.248 6.248 0 00-6.25 6.25 6.248 6.248 0 006.25 6.25z" fill="#000"/></svg>
